X:1
T:Guayabera, 10.10.10.10 D
T:Guayabera, 10.10.10.10 D
T:Benjamin Franklin Butts, 1900
T:Public Domain Courtesy of the Cyber Hymnal™
C:Benjamin Franklin Butts, 1900
Z:Public Domain
Z:Courtesy of the Cyber Hymnal™
%%score 1 2
L:1/8
Q:1/4=140
M:3/4
K:Bb
V:1 treble 
V:2 bass 
V:1
 [DF]2 [^C=E]2 [DF]2 | [^CG]2 [DF]2 [DB]2 | [EB]2 [EA]2 [EG]2 | [EA]6 | [EA]2 [EG]2 [EF]2 | %5
 [EA]2 [EG]2 [EF]2 | [EG]2 [DF]2 [C=E]2 | [DF]6 | [DF]2 [^C=E]2 [DF]2 | [Fd]2 [Ec]2 [DB]2 | %10
 [Ec]2 [E=B]2 [Ec]2 | [EG]6 | [^CB]2 [CA]2 [CG]2 | [DF]2 [DB]2 [Dc]2 | [=Ec]2 [EG]2 [_EA]2 | %15
 [DB]6 | [Fd]2 [Fd]2 [Fd]2 | [Fd]2 [DB]2 [EG]2 | [DF]2 [^C=E]2 [CG]2 | [DF]6 | [Ec]2 [Ec]2 [Ec]2 | %21
 [Ec]2 [D=B]2 [Ec]2 | [Fd]2 [DB]2 [EG]2 | [DF]6 | [DF]2 [^C=E]2 [DF]2 | [Fd]2 [Ec]2 [DB]2 | %26
 [DB]2 [Ec]2 [Fd]2 | [Ge]6 | [Ge]2 [Fd]2 [Gc]2 | [FB]2 [DF]2 [DF]2 | [EF]2 [EG]2 [EA]2 | [DB]6 |] %32
V:2
 [B,,B,]2 [B,,G,]2 [B,,F,]2 | [B,,=E,]2 [B,,F,]2 [B,,F,]2 | [C,F,]2 [C,F,]2 [C,C]2 | [F,C]6 | %4
 [F,C]2 [F,B,]2 [F,A,]2 | [F,C]2 [F,B,]2 [F,A,]2 | [B,,B,]2 [B,,B,]2 [B,,B,]2 | [B,,B,]6 | %8
 [B,,B,]2 [B,,G,]2 [B,,F,]2 | [B,,B,]2 [B,,B,]2 [B,,_A,]2 | [E,G,]2 [E,G,]2 [E,G,]2 | [E,B,]6 | %12
 [=E,G,]2 [E,A,]2 [E,B,]2 | [F,B,]2 [F,B,]2 [F,B,]2 | [C,B,]2 [C,C]2 [F,C]2 | [B,,B,]6 | %16
 [B,,B,]2 [B,,B,]2 [B,,B,]2 | [B,,B,]2 [B,,B,]2 [B,,B,]2 | [B,,B,]2 [B,,G,]2 [C,=E,]2 | [B,,F,]6 | %20
 [F,A,]2 [F,A,]2 [F,A,]2 | [F,A,]2 [F,^G,]2 [F,A,]2 | [B,,B,]2 [B,,B,]2 [B,,B,]2 | [B,,B,]6 | %24
 [B,,B,]2 [B,,G,]2 [B,,F,]2 | [B,,B,]2 [B,,B,]2 [B,,B,]2 | [B,,B,]2 [B,,B,]2 [B,,B,]2 | [E,B,]6 | %28
 [C,C]2 [D,=B,]2 [E,C]2 | [F,D]2 [F,B,]2 [F,B,]2 | [F,A,]2 [F,B,]2 [F,C]2 | [B,,B,]6 |] %32

